places/scalable/folder-green-print.svg

<svg xmlns="http://www.w3.org/2000/svg" style="isolation:isolate" width="256" height="256"><path d="M53.039 21C16.724 21 13 23.055 13 59.371v52.167h230V79.563c0-36.316-3.724-42.102-40.039-42.102h-89.336L97.198 21H53.039z" fill="#28851E"/><path d="M53.039 70.384C16.722 70.384 13 74.114 13 110.429v84.524C13 231.269 16.722 235 53.039 235h149.922c36.317 0 40.039-3.731 40.039-40.047V93.969c0-36.316-3.722-40.047-40.039-40.047H119.53l-16.438 16.462H53.039z" fill="#76C22B"/><linearGradient id="a" y1=".5" x2="0" y2="-.5" gradientTransform="matrix(230 0 0 181.078 13 53.922)" gradientUnits="userSpaceOnUse"><stop offset="0%" stop-opacity=".07" stop-color="#fff"/><stop offset="67.282%" stop-opacity="0" stop-color="#fcefe8"/></linearGradient><path d="M53.039 70.384C16.722 70.384 13 74.114 13 110.429v84.524C13 231.269 16.722 235 53.039 235h149.922c36.317 0 40.039-3.731 40.039-40.047V93.969c0-36.316-3.722-40.047-40.039-40.047H119.53l-16.438 16.462H53.039z" fill="url(#a)"/><g opacity=".4"><radialGradient id="b" fx=".5" fy=".136" cx=".5" cy=".5" r=".272" gradientTransform="matrix(230 0 0 60.62 13 21)" gradientUnits="userSpaceOnUse"><stop offset="0%" stop-color="#fff"/><stop offset="100%" stop-opacity=".204" stop-color="#fff"/></radialGradient><path d="M53.039 21C16.724 21 13 23.055 13 59.371v2.059c0-36.316 3.724-38.373 40.039-38.373h44.159l16.427 16.461h89.336c36.315 0 40.039 5.786 40.039 42.102v-2.057c0-36.316-3.724-42.102-40.039-42.102h-89.336L97.198 21H53.039z" fill="url(#b)"/></g><g opacity=".4"><radialGradient id="c" fx=".482" fy=".211" cx=".5" cy=".5" r=".272" gradientTransform="matrix(230 0 0 58.565 13 53.922)" gradientUnits="userSpaceOnUse"><stop offset="0%" stop-color="#fff"/><stop offset="100%" stop-opacity=".204" stop-color="#fff"/></radialGradient><path d="M119.53 53.922l-16.438 16.462H53.039C16.724 70.384 13 74.112 13 110.427v2.06c0-36.316 3.724-40.046 40.039-40.046h50.053l16.438-16.46h83.431c36.315 0 40.039 3.727 40.039 40.043v-2.057c0-36.316-3.724-40.045-40.039-40.045H119.53z" fill="url(#c)"/></g><path d="M243 167.096l-65.715 65.845h25.676c36.315 0 40.039-3.727 40.039-40.043v-25.802z" fill="#FFF" opacity=".1"/><path d="M13 192.898v2.057C13 231.271 16.724 235 53.039 235h149.922c36.315 0 40.039-3.729 40.039-40.045v-2.057c0 36.316-3.724 40.043-40.039 40.043H53.039c-36.315 0-40.039-3.727-40.039-40.043z" opacity=".2"/><g opacity=".62"><path d="M90.5 92v30.19c-5.621.135-10.58.516-14.531 2.696-2.823 1.557-5.049 4.195-6.284 7.485C68.45 135.661 68 139.568 68 144.5V167c0 4.932.449 8.839 1.685 12.129 1.235 3.29 3.461 5.928 6.284 7.485 2.117 1.168 4.493 1.751 7.031 2.154v-7.691c-1.404-.266-2.604-.594-3.413-1.04-1.376-.759-2.154-1.595-2.886-3.545-.731-1.949-1.201-5.049-1.201-9.492v-22.5c0-4.443.469-7.543 1.201-9.492.732-1.949 1.51-2.786 2.886-3.545 2.745-1.514 8.974-1.853 18.413-1.963h60c9.439.11 15.654.448 18.398 1.963 1.376.759 2.169 1.595 2.901 3.545.732 1.949 1.201 5.049 1.201 9.492V167c0 4.443-.469 7.543-1.201 9.492-.732 1.949-1.525 2.786-2.901 3.545-.806.445-2.001.774-3.398 1.04v7.691c2.538-.403 4.914-.986 7.031-2.154 2.823-1.557 5.049-4.195 6.284-7.485 1.236-3.29 1.685-7.197 1.685-12.129v-22.5c0-4.932-.449-8.839-1.685-12.129-1.235-3.29-3.461-5.928-6.284-7.485-3.951-2.18-8.91-2.561-14.531-2.696V92h-75zm7.5 7.5h60V122H98V99.5zm71.25 37.5a3.75 3.75 0 1 0 0 7.5 3.75 3.75 0 0 0 0-7.5zM90.5 167v45h75v-45H158v37.5H98V167h-7.5zm15 7.5v7.5h45v-7.5h-45zm0 15v7.5h45v-7.5h-45z" fill="#FFF"/></g></svg>

<?xml version="1.0" standalone="no"?><!-- Generator: Gravit.io -->
<svg xmlns="http://www.w3.org/2000/svg" 
  xmlns:xlink="http://www.w3.org/1999/xlink" style="isolation:isolate" viewBox="0 0 256 256" width="256" height="256">
  <switch>
    <g>
      <g id="folder">
        <path d=" M 53.039 21 C 16.724 21 13 23.055 13 59.371 L 13 111.538 L 243 111.538 L 243 79.563 C 243 43.247 239.276 37.461 202.961 37.461 L 113.625 37.461 L 97.198 21 L 53.039 21 Z " id="orange" fill="#28851E"/>
        <path d=" M 53.039 70.384 C 16.722 70.384 13 74.114 13 110.429 L 13 194.953 C 13 231.269 16.722 235 53.039 235 L 202.961 235 C 239.278 235 243 231.269 243 194.953 L 243 93.969 C 243 57.653 239.278 53.922 202.961 53.922 L 119.53 53.922 L 103.092 70.384 L 53.039 70.384 Z " id="change-color-easy" fill="#76C22B"/>
        <linearGradient id="_lgradient_31" x1="0" y1="0.5" x2="2.83276944882399e-16" y2="-0.5" gradientTransform="matrix(230,0,0,181.078,13,53.922)" gradientUnits="userSpaceOnUse">
          <stop offset="0%" stop-opacity="0.07" style="stop-color:rgb(255,255,255)"/>
          <stop offset="67.28219512106674%" stop-opacity="0" style="stop-color:rgb(252,239,232)"/>
        </linearGradient>
        <path d=" M 53.039 70.384 C 16.722 70.384 13 74.114 13 110.429 L 13 194.953 C 13 231.269 16.722 235 53.039 235 L 202.961 235 C 239.278 235 243 231.269 243 194.953 L 243 93.969 C 243 57.653 239.278 53.922 202.961 53.922 L 119.53 53.922 L 103.092 70.384 L 53.039 70.384 Z " id="gradient white" fill="url(#_lgradient_31)"/>
        <g opacity="0.4">
          <radialGradient id="_rgradient_61" fx="0.5000000213726793" fy="0.13577386516315215" cx="0.5" cy="0.5" r="0.27154159375000003" gradientTransform="matrix(230,0,0,60.62,13,21)" gradientUnits="userSpaceOnUse">
            <stop offset="0%" stop-opacity="1" style="stop-color:rgb(255,255,255)"/>
            <stop offset="100%" stop-opacity="0.20392157" style="stop-color:rgb(255,255,255)"/>
          </radialGradient>
          <path d=" M 53.039 21 C 16.724 21 13 23.055 13 59.371 L 13 61.43 C 13 25.114 16.724 23.057 53.039 23.057 L 97.198 23.057 L 113.625 39.518 L 202.961 39.518 C 239.276 39.518 243 45.304 243 81.62 L 243 79.563 C 243 43.247 239.276 37.461 202.961 37.461 L 113.625 37.461 L 97.198 21 L 53.039 21 Z " id="white" fill="url(#_rgradient_61)"/>
        </g>
        <g opacity="0.4">
          <radialGradient id="_rgradient_62" fx="0.48214287810452355" fy="0.2108154047287485" cx="0.5" cy="0.5" r="0.27154159375" gradientTransform="matrix(230,0,0,58.565,13,53.922)" gradientUnits="userSpaceOnUse">
            <stop offset="0%" stop-opacity="1" style="stop-color:rgb(255,255,255)"/>
            <stop offset="100%" stop-opacity="0.20392157" style="stop-color:rgb(255,255,255)"/>
          </radialGradient>
          <path d=" M 119.53 53.922 L 103.092 70.384 L 53.039 70.384 C 16.724 70.384 13 74.112 13 110.427 L 13 112.487 C 13 76.171 16.724 72.441 53.039 72.441 L 103.092 72.441 L 119.53 55.981 L 202.961 55.981 C 239.276 55.981 243 59.708 243 96.024 L 243 93.967 C 243 57.651 239.276 53.922 202.961 53.922 L 119.53 53.922 Z " id="white" fill="url(#_rgradient_62)"/>
        </g>
        <g opacity="0.1">
          <path d=" M 243 167.096 L 177.285 232.941 L 202.961 232.941 C 239.276 232.941 243 229.214 243 192.898 L 243 167.096 Z " id="white" fill="rgb(255,255,255)"/>
        </g>
        <g opacity="0.2">
          <path d=" M 13 192.898 L 13 194.955 C 13 231.271 16.724 235 53.039 235 L 202.961 235 C 239.276 235 243 231.271 243 194.955 L 243 192.898 C 243 229.214 239.276 232.941 202.961 232.941 L 53.039 232.941 C 16.724 232.941 13 229.214 13 192.898 Z " id="dark" fill="rgb(0,0,0)"/>
        </g>
      </g>
      <g opacity="0.62">
        <path d=" M 90.5 92 L 90.5 122 L 90.5 122.19 C 84.879 122.325 79.92 122.706 75.969 124.886 C 73.146 126.443 70.92 129.081 69.685 132.371 C 68.45 135.661 68 139.568 68 144.5 L 68 167 C 68 171.932 68.449 175.839 69.685 179.129 C 70.92 182.419 73.146 185.057 75.969 186.614 C 78.086 187.782 80.462 188.365 83 188.768 L 83 181.077 C 81.596 180.811 80.396 180.483 79.587 180.037 C 78.211 179.278 77.433 178.442 76.701 176.492 C 75.97 174.543 75.5 171.443 75.5 167 L 75.5 144.5 C 75.5 140.057 75.969 136.957 76.701 135.008 C 77.433 133.059 78.211 132.222 79.587 131.463 C 82.332 129.949 88.561 129.61 98 129.5 L 158 129.5 C 167.439 129.61 173.654 129.948 176.398 131.463 C 177.774 132.222 178.567 133.058 179.299 135.008 C 180.031 136.957 180.5 140.057 180.5 144.5 L 180.5 167 C 180.5 171.443 180.031 174.543 179.299 176.492 C 178.567 178.441 177.774 179.278 176.398 180.037 C 175.592 180.482 174.397 180.811 173 181.077 L 173 188.768 C 175.538 188.365 177.914 187.782 180.031 186.614 C 182.854 185.057 185.08 182.419 186.315 179.129 C 187.551 175.839 188 171.932 188 167 L 188 144.5 C 188 139.568 187.551 135.661 186.315 132.371 C 185.08 129.081 182.854 126.443 180.031 124.886 C 176.08 122.706 171.121 122.325 165.5 122.19 L 165.5 122 L 165.5 92 L 90.5 92 Z  M 98 99.5 L 158 99.5 L 158 122 L 98 122 L 98 99.5 Z  M 169.25 137 C 167.179 137 165.5 138.679 165.5 140.75 C 165.5 142.821 167.179 144.5 169.25 144.5 C 171.321 144.5 173 142.821 173 140.75 C 173 138.679 171.321 137 169.25 137 Z  M 90.5 167 L 90.5 170.75 L 90.5 212 L 165.5 212 L 165.5 170.75 L 165.5 167 L 158 167 L 158 170.75 L 158 204.5 L 98 204.5 L 98 170.75 L 98 167 L 90.5 167 Z  M 105.5 174.5 L 105.5 182 L 150.5 182 L 150.5 174.5 L 105.5 174.5 Z  M 105.5 189.5 L 105.5 197 L 150.5 197 L 150.5 189.5 L 105.5 189.5 Z " id="printer" fill="#FFFFFF"/>
      </g>
    </g>
  </switch>
</svg>
